images/config-asis-arrow.svg

<svg width="23" height="18" viewBox="0 0 23 18" fill="none" xmlns="http://www.w3.org/2000/svg">
<rect x="21.5" y="8.5" width="1" height="20" transform="rotate(90 21.5 8.5)" fill="#3C7DD7"/>
<mask id="path-2-inside-1" fill="white">
<path fill-rule="evenodd" clip-rule="evenodd" d="M12.5 0.5L22.5 9L12.5 17.5"/>
</mask>
<path d="M22.5 9L23.1476 9.76194L24.044 9L23.1476 8.23806L22.5 9ZM11.8524 1.26194L21.8524 9.76194L23.1476 8.23806L13.1476 -0.26194L11.8524 1.26194ZM21.8524 8.23806L11.8524 16.7381L13.1476 18.2619L23.1476 9.76194L21.8524 8.23806Z" fill="#3C7DD7" mask="url(#path-2-inside-1)"/>
</svg>

<svg width="23" height="18" xmlns="http://www.w3.org/2000/svg" xmlns:xlink="http://www.w3.org/1999/xlink" viewBox="0 0 22.54 18.52"><defs><style>.cls-1{fill:#fff;}.cls-2{fill:#3c7dd7;}.cls-3{mask:url(#mask);}</style><mask id="mask" x="10.35" y="0" width="12.19" height="18.52" maskUnits="userSpaceOnUse"><g transform="translate(-1.5 0.26)"><g id="path-2-inside-1"><path class="cls-1" d="M12.5.5,22.5,9l-10,8.5"/></g></g></mask></defs><title>config-asis-arrow</title><rect class="cls-2" y="8.76" width="20" height="1"/><g class="cls-3"><path class="cls-2" d="M22.5,9l.65.76L24,9l-.9-.76ZM11.85,1.26l10,8.5,1.3-1.52-10-8.5Zm10,7-10,8.5,1.3,1.52,10-8.5Z" transform="translate(-1.5 0.26)"/></g></svg>
